X:83
T: Siji hua kai
N: C0105
O: China, Hubei, Qianyang
S: I, 384]
N: neues Volkslied. +++ Tonart, Takt, kl. Wert ERRATEN. +++
N: Vereinzelt Verzierungen. Vorspiel weggelassen.
R: Xiaodiao, Wanglang huakai diao. Xin minge]
M: 2/4
L: 1/16
K: D
e3ddedd | A2A4A2 | dfd4f2 | e3dB2A2
A2d4AF | ABAFA4 | d2d4fa | e3dd2A2
d2A2d2A2 | d6AF | A2F2ABAF | E3FA4
A2d4F2 | E3FA4 | d2A2d2A2 | A2d4F2 | A3FD4
FAFED2F2 | EFEDE4

